static/images/icons/external.svg

<?xml version="1.0" encoding="UTF-8"?>
<svg id="Layer_1" xmlns="http://www.w3.org/2000/svg" version="1.1" viewBox="0 0 512 512">
  <!-- Generator: Adobe Illustrator 29.0.1, SVG Export Plug-In . SVG Version: 2.1.0 Build 192)  -->
  <defs>
    <style>
      .st0 {
        fill: #ff7100;
      }
    </style>
  </defs>
  <path class="st0" d="M320,0c-17.7,0-32,14.3-32,32s14.3,32,32,32h82.7l-201.3,201.4c-12.5,12.5-12.5,32.8,0,45.3s32.8,12.5,45.3,0l201.3-201.4v82.7c0,17.7,14.3,32,32,32s32-14.3,32-32V32c0-17.7-14.3-32-32-32h-160ZM80,32C35.8,32,0,67.8,0,112v320c0,44.2,35.8,80,80,80h320c44.2,0,80-35.8,80-80v-112c0-17.7-14.3-32-32-32s-32,14.3-32,32v112c0,8.8-7.2,16-16,16H80c-8.8,0-16-7.2-16-16V112c0-8.8,7.2-16,16-16h112c17.7,0,32-14.3,32-32s-14.3-32-32-32h-112Z"/>
</svg>

<svg xmlns="http://www.w3.org/2000/svg" height="1em" viewBox="0 0 512 512"><!--! Font Awesome Free 6.4.0 by @fontawesome - https://fontawesome.com License - https://fontawesome.com/license (Commercial License) Copyright 2023 Fonticons, Inc. --><style>svg{fill:#ffffff}</style><path d="M320 0c-17.7 0-32 14.3-32 32s14.3 32 32 32h82.7L201.4 265.4c-12.5 12.5-12.5 32.8 0 45.3s32.8 12.5 45.3 0L448 109.3V192c0 17.7 14.3 32 32 32s32-14.3 32-32V32c0-17.7-14.3-32-32-32H320zM80 32C35.8 32 0 67.8 0 112V432c0 44.2 35.8 80 80 80H400c44.2 0 80-35.8 80-80V320c0-17.7-14.3-32-32-32s-32 14.3-32 32V432c0 8.8-7.2 16-16 16H80c-8.8 0-16-7.2-16-16V112c0-8.8 7.2-16 16-16H192c17.7 0 32-14.3 32-32s-14.3-32-32-32H80z"/></svg>
